X: 3597
T: Bill Ellis'
R: hornpipe
M: 4/4
K: Amajor
|:cd|edec agae|c'bc'e agae|(3fga fe dcBA|(3EGB (3egb e'2 cd|
edec agae|c'bc'e agae|(3fag (3fed cBAG|B2 A2 A2:|
|:Bc|d3B (3bag (3fed|c3A (3agf (3edc|BA (3Bcd (3gfe (3dcB|Acef e2 cd|
edec agae|c'bc'e agae|(3fag (3fed cBAG|B2 A2 A2:|

